bernoullicharts/1_3_x__mean.svg

<?xml version="1.0" encoding="utf-8" standalone="no"?>
<!DOCTYPE svg PUBLIC "-//W3C//DTD SVG 1.1//EN"
  "http://www.w3.org/Graphics/SVG/1.1/DTD/svg11.dtd">
<!-- Created with matplotlib (https://matplotlib.org/) -->
<svg height="345.6pt" version="1.1" viewBox="0 0 460.8 345.6" width="460.8pt" xmlns="http://www.w3.org/2000/svg" xmlns:xlink="http://www.w3.org/1999/xlink">
 <defs>
  <style type="text/css">
*{stroke-linecap:butt;stroke-linejoin:round;}
  </style>
 </defs>
 <g id="figure_1">
  <g id="patch_1">
   <path d="M 0 345.6 
L 460.8 345.6 
L 460.8 0 
L 0 0 
z
" style="fill:#ffffff;"/>
  </g>
  <g id="axes_1">
   <g id="patch_2">
    <path d="M 57.6 307.584 
L 414.72 307.584 
L 414.72 41.472 
L 57.6 41.472 
z
" style="fill:#ffffff;"/>
   </g>
   <g id="matplotlib.axis_1">
    <g id="xtick_1">
     <g id="line2d_1">
      <defs>
       <path d="M 0 0 
L 0 3.5 
" id="m01e48f4f4d" style="stroke:#000000;stroke-width:0.8;"/>
      </defs>
      <g>
       <use style="stroke:#000000;stroke-width:0.8;" x="73.800255" xlink:href="#m01e48f4f4d" y="307.584"/>
      </g>
     </g>
     <g id="text_1">
      <text style="font-family:DejaVu Sans;font-size:10px;font-style:normal;font-weight:normal;text-anchor:middle;" transform="rotate(-0, 73.800255, 322.182437)" x="73.800255" y="322.182437">0.0</text>
     </g>
    </g>
    <g id="xtick_2">
     <g id="line2d_2">
      <g>
       <use style="stroke:#000000;stroke-width:0.8;" x="138.744153" xlink:href="#m01e48f4f4d" y="307.584"/>
      </g>
     </g>
     <g id="text_2">
      <text style="font-family:DejaVu Sans;font-size:10px;font-style:normal;font-weight:normal;text-anchor:middle;" transform="rotate(-0, 138.744153, 322.182437)" x="138.744153" y="322.182437">0.2</text>
     </g>
    </g>
    <g id="xtick_3">
     <g id="line2d_3">
      <g>
       <use style="stroke:#000000;stroke-width:0.8;" x="203.688051" xlink:href="#m01e48f4f4d" y="307.584"/>
      </g>
     </g>
     <g id="text_3">
      <text style="font-family:DejaVu Sans;font-size:10px;font-style:normal;font-weight:normal;text-anchor:middle;" transform="rotate(-0, 203.688051, 322.182437)" x="203.688051" y="322.182437">0.4</text>
     </g>
    </g>
    <g id="xtick_4">
     <g id="line2d_4">
      <g>
       <use style="stroke:#000000;stroke-width:0.8;" x="268.631949" xlink:href="#m01e48f4f4d" y="307.584"/>
      </g>
     </g>
     <g id="text_4">
      <text style="font-family:DejaVu Sans;font-size:10px;font-style:normal;font-weight:normal;text-anchor:middle;" transform="rotate(-0, 268.631949, 322.182437)" x="268.631949" y="322.182437">0.6</text>
     </g>
    </g>
    <g id="xtick_5">
     <g id="line2d_5">
      <g>
       <use style="stroke:#000000;stroke-width:0.8;" x="333.575847" xlink:href="#m01e48f4f4d" y="307.584"/>
      </g>
     </g>
     <g id="text_5">
      <text style="font-family:DejaVu Sans;font-size:10px;font-style:normal;font-weight:normal;text-anchor:middle;" transform="rotate(-0, 333.575847, 322.182437)" x="333.575847" y="322.182437">0.8</text>
     </g>
    </g>
    <g id="xtick_6">
     <g id="line2d_6">
      <g>
       <use style="stroke:#000000;stroke-width:0.8;" x="398.519745" xlink:href="#m01e48f4f4d" y="307.584"/>
      </g>
     </g>
     <g id="text_6">
      <text style="font-family:DejaVu Sans;font-size:10px;font-style:normal;font-weight:normal;text-anchor:middle;" transform="rotate(-0, 398.519745, 322.182437)" x="398.519745" y="322.182437">1.0</text>
     </g>
    </g>
    <g id="text_7">
     <text style="font-family:DejaVu Sans;font-size:10px;font-style:normal;font-weight:normal;text-anchor:middle;" transform="rotate(-0, 236.16, 335.860562)" x="236.16" y="335.860562">Input Coin's Heads Probability (λ)</text>
    </g>
   </g>
   <g id="matplotlib.axis_2">
    <g id="ytick_1">
     <g id="line2d_7">
      <defs>
       <path d="M 0 0 
L -3.5 0 
" id="mfa3d92f0c7" style="stroke:#000000;stroke-width:0.8;"/>
      </defs>
      <g>
       <use style="stroke:#000000;stroke-width:0.8;" x="57.6" xlink:href="#mfa3d92f0c7" y="277.114329"/>
      </g>
     </g>
     <g id="text_8">
      <text style="font-family:DejaVu Sans;font-size:10px;font-style:normal;font-weight:normal;text-anchor:end;" transform="rotate(-0, 50.6, 280.913548)" x="50.6" y="280.913548">0.24</text>
     </g>
    </g>
    <g id="ytick_2">
     <g id="line2d_8">
      <g>
       <use style="stroke:#000000;stroke-width:0.8;" x="57.6" xlink:href="#mfa3d92f0c7" y="246.491544"/>
      </g>
     </g>
     <g id="text_9">
      <text style="font-family:DejaVu Sans;font-size:10px;font-style:normal;font-weight:normal;text-anchor:end;" transform="rotate(-0, 50.6, 250.290763)" x="50.6" y="250.290763">0.26</text>
     </g>
    </g>
    <g id="ytick_3">
     <g id="line2d_9">
      <g>
       <use style="stroke:#000000;stroke-width:0.8;" x="57.6" xlink:href="#mfa3d92f0c7" y="215.868759"/>
      </g>
     </g>
     <g id="text_10">
      <text style="font-family:DejaVu Sans;font-size:10px;font-style:normal;font-weight:normal;text-anchor:end;" transform="rotate(-0, 50.6, 219.667978)" x="50.6" y="219.667978">0.28</text>
     </g>
    </g>
    <g id="ytick_4">
     <g id="line2d_10">
      <g>
       <use style="stroke:#000000;stroke-width:0.8;" x="57.6" xlink:href="#mfa3d92f0c7" y="185.245975"/>
      </g>
     </g>
     <g id="text_11">
      <text style="font-family:DejaVu Sans;font-size:10px;font-style:normal;font-weight:normal;text-anchor:end;" transform="rotate(-0, 50.6, 189.045193)" x="50.6" y="189.045193">0.30</text>
     </g>
    </g>
    <g id="ytick_5">
     <g id="line2d_11">
      <g>
       <use style="stroke:#000000;stroke-width:0.8;" x="57.6" xlink:href="#mfa3d92f0c7" y="154.62319"/>
      </g>
     </g>
     <g id="text_12">
      <text style="font-family:DejaVu Sans;font-size:10px;font-style:normal;font-weight:normal;text-anchor:end;" transform="rotate(-0, 50.6, 158.422409)" x="50.6" y="158.422409">0.32</text>
     </g>
    </g>
    <g id="ytick_6">
     <g id="line2d_12">
      <g>
       <use style="stroke:#000000;stroke-width:0.8;" x="57.6" xlink:href="#mfa3d92f0c7" y="124.000405"/>
      </g>
     </g>
     <g id="text_13">
      <text style="font-family:DejaVu Sans;font-size:10px;font-style:normal;font-weight:normal;text-anchor:end;" transform="rotate(-0, 50.6, 127.799624)" x="50.6" y="127.799624">0.34</text>
     </g>
    </g>
    <g id="ytick_7">
     <g id="line2d_13">
      <g>
       <use style="stroke:#000000;stroke-width:0.8;" x="57.6" xlink:href="#mfa3d92f0c7" y="93.37762"/>
      </g>
     </g>
     <g id="text_14">
      <text style="font-family:DejaVu Sans;font-size:10px;font-style:normal;font-weight:normal;text-anchor:end;" transform="rotate(-0, 50.6, 97.176839)" x="50.6" y="97.176839">0.36</text>
     </g>
    </g>
    <g id="ytick_8">
     <g id="line2d_14">
      <g>
       <use style="stroke:#000000;stroke-width:0.8;" x="57.6" xlink:href="#mfa3d92f0c7" y="62.754835"/>
      </g>
     </g>
     <g id="text_15">
      <text style="font-family:DejaVu Sans;font-size:10px;font-style:normal;font-weight:normal;text-anchor:end;" transform="rotate(-0, 50.6, 66.554054)" x="50.6" y="66.554054">0.38</text>
     </g>
    </g>
    <g id="text_16">
     <text style="font-family:DejaVu Sans;font-size:10px;font-style:normal;font-weight:normal;text-anchor:middle;" transform="rotate(-90, 22.254687, 174.528)" x="22.254687" y="174.528">Simulated Mean / Function Value</text>
    </g>
   </g>
   <g id="line2d_15">
    <path clip-path="url(#pcb4d3cda3f)" d="M 73.832727 134.225012 
L 77.112066 135.93724 
L 80.391405 137.638018 
L 83.670744 139.327461 
L 86.950083 141.00568 
L 90.229421 142.672787 
L 93.50876 144.328894 
L 96.788099 145.974107 
L 100.067438 147.608534 
L 103.346777 149.232281 
L 106.626116 150.845453 
L 109.905455 152.448152 
L 113.184793 154.040479 
L 116.464132 155.622536 
L 119.743471 157.194421 
L 123.02281 158.756232 
L 126.302149 160.308066 
L 129.581488 161.850017 
L 132.860826 163.382181 
L 136.140165 164.90465 
L 139.419504 166.417515 
L 142.698843 167.920867 
L 145.978182 169.414796 
L 149.257521 170.89939 
L 152.53686 172.374736 
L 155.816198 173.84092 
L 159.095537 175.298028 
L 162.374876 176.746143 
L 165.654215 178.185349 
L 168.933554 179.615727 
L 172.212893 181.037359 
L 175.492231 182.450323 
L 178.77157 183.8547 
L 182.050909 185.250568 
L 185.330248 186.638003 
L 188.609587 188.017082 
L 191.888926 189.38788 
L 195.168264 190.750471 
L 198.447603 192.104929 
L 201.726942 193.451326 
L 205.006281 194.789734 
L 208.28562 196.120225 
L 211.564959 197.442868 
L 214.844298 198.757731 
L 218.123636 200.064885 
L 221.402975 201.364396 
L 224.682314 202.656332 
L 227.961653 203.940757 
L 231.240992 205.217738 
L 234.520331 206.487339 
L 237.799669 207.749624 
L 241.079008 209.004656 
L 244.358347 210.252498 
L 247.637686 211.49321 
L 250.917025 212.726854 
L 254.196364 213.95349 
L 257.475702 215.173177 
L 260.755041 216.385975 
L 264.03438 217.591942 
L 267.313719 218.791135 
L 270.593058 219.983611 
L 273.872397 221.169427 
L 277.151736 222.348637 
L 280.431074 223.521298 
L 283.710413 224.687463 
L 286.989752 225.847186 
L 290.269091 227.000521 
L 293.54843 228.147521 
L 296.827769 229.288236 
L 300.107107 230.422719 
L 303.386446 231.551021 
L 306.665785 232.673192 
L 309.945124 233.789282 
L 313.224463 234.89934 
L 316.503802 236.003416 
L 319.78314 237.101556 
L 323.062479 238.193809 
L 326.341818 239.280223 
L 329.621157 240.360843 
L 332.900496 241.435716 
L 336.179835 242.504889 
L 339.459174 243.568405 
L 342.738512 244.62631 
L 346.017851 245.678648 
L 349.29719 246.725463 
L 352.576529 247.766799 
L 355.855868 248.802697 
L 359.135207 249.833201 
L 362.414545 250.858353 
L 365.693884 251.878194 
L 368.973223 252.892766 
L 372.252562 253.902109 
L 375.531901 254.906263 
L 378.81124 255.905269 
L 382.090579 256.899166 
L 385.369917 257.887992 
L 388.649256 258.871788 
L 391.928595 259.85059 
L 395.207934 260.824437 
L 398.487273 261.793367 
" style="fill:none;stroke:#1f77b4;stroke-linecap:square;stroke-width:1.5;"/>
   </g>
   <g id="line2d_16">
    <path clip-path="url(#pcb4d3cda3f)" d="M 73.832727 142.374076 
L 77.112066 53.568 
L 80.391405 212.806481 
L 83.670744 154.62319 
L 86.950083 111.751291 
L 90.229421 172.996861 
L 93.50876 151.560911 
L 96.788099 117.875848 
L 100.067438 114.81357 
L 103.346777 166.872304 
L 106.626116 142.374076 
L 109.905455 197.495089 
L 113.184793 145.436354 
L 116.464132 154.62319 
L 119.743471 160.747747 
L 123.02281 145.436354 
L 126.302149 151.560911 
L 129.581488 142.374076 
L 132.860826 102.564456 
L 136.140165 163.810025 
L 139.419504 127.062684 
L 142.698843 228.117873 
L 145.978182 127.062684 
L 149.257521 53.568 
L 152.53686 209.744203 
L 155.816198 191.370532 
L 159.095537 206.681924 
L 162.374876 200.557367 
L 165.654215 154.62319 
L 168.933554 185.245975 
L 172.212893 194.43281 
L 175.492231 154.62319 
L 178.77157 212.806481 
L 182.050909 188.308253 
L 185.330248 215.868759 
L 188.609587 151.560911 
L 191.888926 145.436354 
L 195.168264 182.183696 
L 198.447603 185.245975 
L 201.726942 215.868759 
L 205.006281 169.934582 
L 208.28562 194.43281 
L 211.564959 194.43281 
L 214.844298 185.245975 
L 218.123636 194.43281 
L 221.402975 172.996861 
L 224.682314 148.498633 
L 227.961653 295.488 
L 231.240992 243.429266 
L 234.520331 194.43281 
L 237.799669 182.183696 
L 241.079008 203.619646 
L 244.358347 176.059139 
L 247.637686 169.934582 
L 250.917025 221.993316 
L 254.196364 179.121418 
L 257.475702 246.491544 
L 260.755041 182.183696 
L 264.03438 197.495089 
L 267.313719 237.304709 
L 270.593058 261.802937 
L 273.872397 255.67838 
L 277.151736 206.681924 
L 280.431074 225.055595 
L 283.710413 234.24243 
L 286.989752 206.681924 
L 290.269091 258.740658 
L 293.54843 277.114329 
L 296.827769 252.616101 
L 300.107107 234.24243 
L 303.386446 225.055595 
L 306.665785 225.055595 
L 309.945124 277.114329 
L 313.224463 203.619646 
L 316.503802 286.301165 
L 319.78314 280.176608 
L 323.062479 261.802937 
L 326.341818 197.495089 
L 329.621157 221.993316 
L 332.900496 237.304709 
L 336.179835 234.24243 
L 339.459174 243.429266 
L 342.738512 267.927494 
L 346.017851 145.436354 
L 349.29719 277.114329 
L 352.576529 203.619646 
L 355.855868 249.553823 
L 359.135207 295.488 
L 362.414545 274.052051 
L 365.693884 231.180152 
L 368.973223 246.491544 
L 372.252562 218.931038 
L 375.531901 218.931038 
L 378.81124 206.681924 
L 382.090579 261.802937 
L 385.369917 270.989772 
L 388.649256 267.927494 
L 391.928595 264.865215 
L 395.207934 289.363443 
L 398.487273 157.685468 
" style="fill:none;stroke:#ff7f0e;stroke-linecap:square;stroke-width:1.5;"/>
   </g>
   <g id="patch_3">
    <path d="M 57.6 307.584 
L 57.6 41.472 
" style="fill:none;stroke:#000000;stroke-linecap:square;stroke-linejoin:miter;stroke-width:0.8;"/>
   </g>
   <g id="patch_4">
    <path d="M 414.72 307.584 
L 414.72 41.472 
" style="fill:none;stroke:#000000;stroke-linecap:square;stroke-linejoin:miter;stroke-width:0.8;"/>
   </g>
   <g id="patch_5">
    <path d="M 57.6 307.584 
L 414.72 307.584 
" style="fill:none;stroke:#000000;stroke-linecap:square;stroke-linejoin:miter;stroke-width:0.8;"/>
   </g>
   <g id="patch_6">
    <path d="M 57.6 41.472 
L 414.72 41.472 
" style="fill:none;stroke:#000000;stroke-linecap:square;stroke-linejoin:miter;stroke-width:0.8;"/>
   </g>
   <g id="text_17">
    <text style="font-family:DejaVu Sans;font-size:12px;font-style:normal;font-weight:normal;" transform="translate(121.313438 22.034625)">Simulated Mean for 1/(3+x) Algorithm</text>
    <text style="font-family:DejaVu Sans;font-size:12px;font-style:normal;font-weight:normal;" transform="translate(132.609375 35.472)">(Wasserstein Distances in Legend)</text>
   </g>
   <g id="legend_1">
    <g id="patch_7">
     <path d="M 229.47 78.82825 
L 407.72 78.82825 
Q 409.72 78.82825 409.72 76.82825 
L 409.72 48.472 
Q 409.72 46.472 407.72 46.472 
L 229.47 46.472 
Q 227.47 46.472 227.47 48.472 
L 227.47 76.82825 
Q 227.47 78.82825 229.47 78.82825 
z
" style="fill:#ffffff;opacity:0.8;stroke:#cccccc;stroke-linejoin:miter;"/>
    </g>
    <g id="line2d_17">
     <path d="M 231.47 54.570437 
L 251.47 54.570437 
" style="fill:none;stroke:#1f77b4;stroke-linecap:square;stroke-width:1.5;"/>
    </g>
    <g id="line2d_18"/>
    <g id="text_18">
     <text style="font-family:DejaVu Sans;font-size:10px;font-style:normal;font-weight:normal;text-anchor:start;" transform="rotate(-0, 259.47, 58.070437)" x="259.47" y="58.070437">1/(3+x)</text>
    </g>
    <g id="line2d_19">
     <path d="M 231.47 69.248562 
L 251.47 69.248562 
" style="fill:none;stroke:#ff7f0e;stroke-linecap:square;stroke-width:1.5;"/>
    </g>
    <g id="line2d_20"/>
    <g id="text_19">
     <text style="font-family:DejaVu Sans;font-size:10px;font-style:normal;font-weight:normal;text-anchor:start;" transform="rotate(-0, 259.47, 72.748562)" x="259.47" y="72.748562">Simul. Mean (WD=0.007396)</text>
    </g>
   </g>
  </g>
 </g>
 <defs>
  <clipPath id="pcb4d3cda3f">
   <rect height="266.112" width="357.12" x="57.6" y="41.472"/>
  </clipPath>
 </defs>
</svg>

<svg height="460.8" viewBox="0 0 460.8 345.6" width="614.4" xmlns="http://www.w3.org/2000/svg" xmlns:xlink="http://www.w3.org/1999/xlink"><defs><style>*{stroke-linecap:butt;stroke-linejoin:round}</style></defs><g id="figure_1"><path d="M0 345.6h460.8V0H0z" fill="#fff" id="patch_1"/><g id="axes_1"><path d="M57.6 307.584h357.12V41.472H57.6z" fill="#fff" id="patch_2"/><g id="matplotlib.axis_1"><g id="xtick_1"><g id="line2d_1"><defs><path d="M0 0v3.5" id="m01e48f4f4d" stroke="#000" stroke-width=".8"/></defs><use x="73.8" xlink:href="#m01e48f4f4d" y="307.584" stroke="#000" stroke-width=".8"/></g><text x="73.8" y="322.182" font-family="DejaVu Sans" font-size="10" font-weight="400" text-anchor="middle" id="text_1">0.0</text></g><g id="xtick_2"><use x="138.744" xlink:href="#m01e48f4f4d" y="307.584" stroke="#000" stroke-width=".8" id="line2d_2"/><text x="138.744" y="322.182" font-family="DejaVu Sans" font-size="10" font-weight="400" text-anchor="middle" id="text_2">0.2</text></g><g id="xtick_3"><use x="203.688" xlink:href="#m01e48f4f4d" y="307.584" stroke="#000" stroke-width=".8" id="line2d_3"/><text x="203.688" y="322.182" font-family="DejaVu Sans" font-size="10" font-weight="400" text-anchor="middle" id="text_3">0.4</text></g><g id="xtick_4"><use x="268.632" xlink:href="#m01e48f4f4d" y="307.584" stroke="#000" stroke-width=".8" id="line2d_4"/><text x="268.632" y="322.182" font-family="DejaVu Sans" font-size="10" font-weight="400" text-anchor="middle" id="text_4">0.6</text></g><g id="xtick_5"><use x="333.576" xlink:href="#m01e48f4f4d" y="307.584" stroke="#000" stroke-width=".8" id="line2d_5"/><text x="333.576" y="322.182" font-family="DejaVu Sans" font-size="10" font-weight="400" text-anchor="middle" id="text_5">0.8</text></g><g id="xtick_6"><use x="398.52" xlink:href="#m01e48f4f4d" y="307.584" stroke="#000" stroke-width=".8" id="line2d_6"/><text x="398.52" y="322.182" font-family="DejaVu Sans" font-size="10" font-weight="400" text-anchor="middle" id="text_6">1.0</text></g><text x="236.16" y="335.861" font-family="DejaVu Sans" font-size="10" font-weight="400" text-anchor="middle" id="text_7">Input Coin&apos;s Heads Probability (λ)</text></g><g id="matplotlib.axis_2"><g id="ytick_1"><g id="line2d_7"><defs><path d="M0 0h-3.5" id="mfa3d92f0c7" stroke="#000" stroke-width=".8"/></defs><use x="57.6" xlink:href="#mfa3d92f0c7" y="277.114" stroke="#000" stroke-width=".8"/></g><text x="50.6" y="280.914" font-family="DejaVu Sans" font-size="10" font-weight="400" text-anchor="end" id="text_8">0.24</text></g><g id="ytick_2"><use x="57.6" xlink:href="#mfa3d92f0c7" y="246.492" stroke="#000" stroke-width=".8" id="line2d_8"/><text x="50.6" y="250.291" font-family="DejaVu Sans" font-size="10" font-weight="400" text-anchor="end" id="text_9">0.26</text></g><g id="ytick_3"><use x="57.6" xlink:href="#mfa3d92f0c7" y="215.869" stroke="#000" stroke-width=".8" id="line2d_9"/><text x="50.6" y="219.668" font-family="DejaVu Sans" font-size="10" font-weight="400" text-anchor="end" id="text_10">0.28</text></g><g id="ytick_4"><use x="57.6" xlink:href="#mfa3d92f0c7" y="185.246" stroke="#000" stroke-width=".8" id="line2d_10"/><text x="50.6" y="189.045" font-family="DejaVu Sans" font-size="10" font-weight="400" text-anchor="end" id="text_11">0.30</text></g><g id="ytick_5"><use x="57.6" xlink:href="#mfa3d92f0c7" y="154.623" stroke="#000" stroke-width=".8" id="line2d_11"/><text x="50.6" y="158.422" font-family="DejaVu Sans" font-size="10" font-weight="400" text-anchor="end" id="text_12">0.32</text></g><g id="ytick_6"><use x="57.6" xlink:href="#mfa3d92f0c7" y="124" stroke="#000" stroke-width=".8" id="line2d_12"/><text x="50.6" y="127.8" font-family="DejaVu Sans" font-size="10" font-weight="400" text-anchor="end" id="text_13">0.34</text></g><g id="ytick_7"><use x="57.6" xlink:href="#mfa3d92f0c7" y="93.378" stroke="#000" stroke-width=".8" id="line2d_13"/><text x="50.6" y="97.177" font-family="DejaVu Sans" font-size="10" font-weight="400" text-anchor="end" id="text_14">0.36</text></g><g id="ytick_8"><use x="57.6" xlink:href="#mfa3d92f0c7" y="62.755" stroke="#000" stroke-width=".8" id="line2d_14"/><text x="50.6" y="66.554" font-family="DejaVu Sans" font-size="10" font-weight="400" text-anchor="end" id="text_15">0.38</text></g><text transform="rotate(-90 22.255 174.528)" x="22.255" y="174.528" font-family="DejaVu Sans" font-size="10" font-weight="400" text-anchor="middle" id="text_16">Simulated Mean / Function Value</text></g><path clip-path="url(#pcb4d3cda3f)" d="M73.833 134.225l3.28 1.712 3.278 1.701 3.28 1.69 3.28 1.678 3.278 1.667 3.28 1.656 3.28 1.645 3.278 1.635 3.28 1.623 3.28 1.613 3.278 1.603 3.28 1.592 3.28 1.583 3.278 1.571 3.28 1.562 3.28 1.552 3.278 1.542 3.28 1.532 3.28 1.523 3.279 1.513 3.279 1.503 3.28 1.494 3.279 1.484 3.279 1.476 3.28 1.466 3.279 1.457 3.279 1.448 3.28 1.44 3.279 1.43 3.279 1.421 3.28 1.413 3.279 1.405 3.279 1.396 3.28 1.387 3.279 1.38 3.279 1.37 3.28 1.362 3.279 1.355 3.279 1.346 3.28 1.339 3.279 1.33 3.279 1.323 3.28 1.315 3.279 1.307 3.279 1.3 3.28 1.291 3.279 1.285 3.279 1.277 3.28 1.27 3.279 1.262 3.279 1.255 3.28 1.247 3.279 1.241 3.279 1.234 3.28 1.226 3.279 1.22 3.279 1.213 3.28 1.206 3.279 1.2 3.28 1.192 3.278 1.185 3.28 1.18 3.28 1.172 3.278 1.166 3.28 1.16 3.28 1.154 3.278 1.147 3.28 1.14 3.28 1.135 3.278 1.128 3.28 1.122 3.28 1.116 3.278 1.11 3.28 1.104 3.28 1.099 3.278 1.092 3.28 1.086 3.28 1.08 3.278 1.076 3.28 1.069 3.28 1.063 3.279 1.058 3.279 1.053 3.28 1.046 3.279 1.042 3.279 1.036 3.28 1.03 3.279 1.025 3.279 1.02 3.28 1.015 3.279 1.01 3.279 1.003 3.28 1 3.279.993 3.279.989 3.28.984 3.279.979 3.279.973 3.28.97" fill="none" stroke="#1f77b4" stroke-linecap="square" stroke-width="1.5" id="line2d_15"/><path clip-path="url(#pcb4d3cda3f)" d="M73.833 142.374l3.28-88.806 3.278 159.238 3.28-58.183 3.28-42.872 3.278 61.246 3.28-21.436 3.28-33.685 3.278-3.062 3.28 52.058 3.28-24.498 3.278 55.121 3.28-52.059 3.28 9.187 3.278 6.125 3.28-15.312 3.28 6.125 3.278-9.187 3.28-39.81 3.28 61.246 3.279-36.747 3.279 101.055 3.28-101.055 3.279-73.495 3.279 156.176 3.28-18.373 3.279 15.31 3.279-6.124 3.28-45.934 3.279 30.623 3.279 9.187 3.28-39.81 3.279 58.183 3.279-24.498 3.28 27.56 3.279-64.307 3.279-6.125 3.28 36.748 3.279 3.062 3.279 30.623 3.28-45.934 3.279 24.498h3.279l3.28-9.187 3.279 9.187 3.279-21.436 3.28-24.498 3.279 146.989 3.279-52.059 3.28-48.996 3.279-12.25 3.279 21.437 3.28-27.56 3.279-6.125 3.279 52.058 3.28-42.872 3.279 67.37 3.279-64.307 3.28 15.311 3.279 39.81 3.28 24.498 3.278-6.125 3.28-48.996 3.28 18.374 3.278 9.186 3.28-27.56 3.28 52.059 3.278 18.373 3.28-24.498 3.28-18.374 3.278-9.186h3.28l3.28 52.058 3.278-73.494 3.28 82.681 3.28-6.124 3.278-18.374 3.28-64.308 3.28 24.498 3.278 15.312 3.28-3.063 3.28 9.187 3.279 24.498 3.279-122.49 3.28 131.677 3.279-73.494 3.279 45.934 3.28 45.934 3.279-21.436 3.279-42.872 3.28 15.312 3.279-27.561h3.279l3.28-12.25 3.279 55.122 3.279 9.187 3.28-3.063 3.279-3.062 3.279 24.498 3.28-131.678" fill="none" stroke="#ff7f0e" stroke-linecap="square" stroke-width="1.5" id="line2d_16"/><path d="M57.6 307.584V41.472" fill="none" stroke="#000" stroke-linecap="square" stroke-width=".8" id="patch_3"/><path d="M414.72 307.584V41.472" fill="none" stroke="#000" stroke-linecap="square" stroke-width=".8" id="patch_4"/><path d="M57.6 307.584h357.12" fill="none" stroke="#000" stroke-linecap="square" stroke-width=".8" id="patch_5"/><path d="M57.6 41.472h357.12" fill="none" stroke="#000" stroke-linecap="square" stroke-width=".8" id="patch_6"/><g id="text_17" font-family="DejaVu Sans" font-size="12" font-weight="400"><text transform="translate(121.313 22.035)">Simulated Mean for 1/(3+x) Algorithm</text><text transform="translate(132.61 35.472)">(Wasserstein Distances in Legend)</text></g><g id="legend_1"><path d="M229.47 78.828h178.25q2 0 2-2V48.472q0-2-2-2H229.47q-2 0-2 2v28.356q0 2 2 2z" fill="#fff" opacity=".8" stroke="#ccc" id="patch_7"/><path d="M231.47 54.57h20" fill="none" stroke="#1f77b4" stroke-linecap="square" stroke-width="1.5" id="line2d_17"/><text x="259.47" y="58.07" font-family="DejaVu Sans" font-size="10" font-weight="400" id="text_18">1/(3+x)</text><path d="M231.47 69.249h20" fill="none" stroke="#ff7f0e" stroke-linecap="square" stroke-width="1.5" id="line2d_19"/><text x="259.47" y="72.749" font-family="DejaVu Sans" font-size="10" font-weight="400" id="text_19">Simul. Mean (WD=0.007396)</text></g></g></g><defs><clipPath id="pcb4d3cda3f"><path d="M57.6 41.472h357.12v266.112H57.6z"/></clipPath></defs></svg>
